X:1
T:Title
%%score { ( 1 3 4 ) | ( 2 5 ) }
L:1/8
M:4/4
K:Ab
V:1 treble nm="Grand Piano"
V:3 treble 
V:4 treble 
V:2 bass 
V:5 bass 
V:1
 z4 z2[Q:1/4=100] EF | [EA]6 z2 | [Ac]4 [EA]2 z2 | [FA]6 z2 |[M:3/4] c2- [A,c]2 [CA]2 |[M:1/4] EF | %6
[M:4/4] [EA]6 z2 | [Ac]4 [EA]2 z2 | c6 z2 |[M:3/4] [CA]6 |[M:1/4] ef |[M:4/4] e6 z2 | %12
 c4 z2 .[Ce]2 | e6 .[GB]2 | B6 z2 | e6 z2 | c4 z4 | [Fc]6 z2 |[M:3/4] A6[K:bass] |] %19
V:2
 z4 z2 CD | A,,2 A,,2 z E z C | A,2 A,2 A,,A,,[K:treble]EF | D,2 D,2 z F [D,A,]2 | %4
[M:3/4] [A,,A,]2 A,,2 A,,2 |[M:1/4] CD |[M:4/4] A,,2 A,,2 z E z C | A,2 A,2 A,,A,,[K:treble]EG | %8
 F2- [F,F-]2 [C,F]D, z B, |[M:3/4] A,,2 A,,2 A,,2 |[M:1/4] z2 | %11
[M:4/4][K:treble] [A,CA]2 [A,C]2 CE z C | A,,2 A,,2 A,,2 z D | [A,CA]2 [A,C]2[K:bass] A,,C,B,,A,, | %14
 E,2 B,,2 E,2 z2 | [A,CA]2 [A,C]2 CE z C | A,,2 A,,2 z E [A,,A,]2 | [F,A,]2 F,2 C,D, z B, | %18
[M:3/4] A,,2 A,,2 A,,2 |] %19
V:3
 x8 | [A,C]2 [A,C]2 z A[EAc][Ae] | E2 E2 CC .A2 | D2 D2 z B[FA][FB] |[M:3/4] E6 |[M:1/4] x2 | %6
[M:4/4] [A,C]2 [A,C]2 z A[EAc][Ae] | E2 E2 CA,c_c | z2 A,2 z [FB][A,EA][DG] |[M:3/4] A,2 A,2 A,2 | %10
[M:1/4] x2 |[M:4/4] z2 A2 z c[DAB]A | [EA]2 [EA]2 [CEA]2 A-[Af] | z2 A2 [CA][EA]E-[EAc] | %14
 [EG]2 [=DF]2 [EG]2 ef | z2 A2 z c[DAB]A | [EA]2 [EA]2 .[CEA]2 [Ec][_G_c] | %17
 z2 A,2 z [FB][A,EA][DG] |[M:3/4] [A,C]2[K:bass] [F,D]2 [E,C]2 |] %19
V:4
 x8 | z4 [A,C]2 z2 | x8 | z4 D2 z2 |[M:3/4] x6 |[M:1/4] x2 |[M:4/4] z4 [A,C]2 z2 | x8 | z4 A,2 z2 | %9
[M:3/4] x6 |[M:1/4] x2 |[M:4/4] z4 A2 z2 | x8 | x8 | x8 | z4 A2 z2 | x8 | z4 A,2 z2 | %18
[M:3/4] x2[K:bass] x4 |] %19
V:5
 x8 | z4 A,,2 [A,,A,]2 | x6[K:treble] x2 | z4 D,2 z2 |[M:3/4] x6 |[M:1/4] x2 | %6
[M:4/4] z4 A,,2 [A,,A,]2 | x6[K:treble] x2 | [F,A,]2 z2 z2 E,2 |[M:3/4] x6 |[M:1/4] x2 | %11
[M:4/4][K:treble] z4 A,2 A,2 | z4 z2 A,,2 | x4[K:bass] x4 | x8 | z4 A,2 A,2 | z4 A,,2 z2 | %17
 z4 z2 E,2 |[M:3/4] x6 |] %19

